packages/nodes-base/nodes/Mailcheck/mailcheck.svg

<svg width="60" height="60" viewBox="0 0 60 60" fill="none" xmlns="http://www.w3.org/2000/svg">
<rect width="60" height="60" rx="8" fill="url(#paint0_linear)"/>
<path fill-rule="evenodd" clip-rule="evenodd" d="M9.52418 25L10.6989 17.5172L13.7532 25H15.1629L18.3798 17.5172L19.5545 25H23.0787L20.7654 12H17.2593L14.5484 18.931L11.8194 12H8.31331L6 25H9.52418ZM29.5487 20.1724L31.1391 15.8448L32.7295 20.1724H29.5487ZM34.4826 25H38.2598L33.0729 12H29.2054L24.0185 25H27.7957L28.609 22.7414H33.6693L34.4826 25ZM39.814 12V25H43.3563V12H39.814ZM46.2107 12V25H54V22.1379H49.7529V12H46.2107ZM13.9678 37.5389C13.5259 37.3538 13.1061 37.2183 12.7029 37.1299C12.3052 37.0442 11.8964 37 11.4822 37C10.7558 37 10.0598 37.1354 9.39701 37.4063C8.73418 37.6771 8.15144 38.0558 7.65155 38.5394C7.14891 39.0231 6.74845 39.598 6.45017 40.2668C6.14914 40.9357 6 41.6709 6 42.4724C6 43.2739 6.1519 44.0146 6.4557 44.6917C6.75949 45.3688 7.16272 45.9548 7.66536 46.4467C8.16801 46.9387 8.74799 47.3229 9.40529 47.5937C10.0626 47.8646 10.753 48 11.4711 48C11.8219 48 12.1754 47.9668 12.5344 47.895C12.8934 47.8231 13.2801 47.7181 13.6944 47.5716L13.9705 47.4749V44.2688C13.2801 45.0068 12.5013 45.3744 11.6368 45.3744C11.2419 45.3744 10.8718 45.2997 10.5321 45.1533C10.1924 45.0068 9.89413 44.8023 9.64005 44.5452C9.38596 44.2882 9.18987 43.9842 9.04626 43.6332C8.90265 43.2822 8.83084 42.9008 8.83084 42.4862C8.83084 42.0799 8.90265 41.704 9.04626 41.353C9.18987 41.002 9.3832 40.7008 9.63176 40.4465C9.88032 40.1922 10.1758 39.9932 10.5211 39.844C10.8663 39.6975 11.2419 39.6229 11.6479 39.6229C12.5675 39.6229 13.3409 40.0043 13.9678 40.7698V37.5389ZM18.3867 37.2902H15.6801V47.7098H18.3867V43.4121H22.2946V47.7098H25.0012V37.2902H22.2946V41.3116H18.3867V37.2902ZM33.107 37.2902H27.183V47.7098H33.107V45.4158H29.8895V43.6193H32.9275V41.3254H29.8895V39.5842H33.107V37.2902ZM42.5524 37.5389C42.1105 37.3538 41.6907 37.2183 41.2902 37.1299C40.887 37.0442 40.481 37 40.0667 37C39.3404 37 38.6444 37.1354 37.9816 37.4063C37.3188 37.6771 36.736 38.0558 36.2334 38.5394C35.7307 39.0231 35.3303 39.598 35.032 40.2668C34.7337 40.9357 34.5846 41.6681 34.5846 42.4696C34.5846 43.2711 34.7365 44.0118 35.0403 44.6889C35.3441 45.3661 35.7473 45.952 36.2499 46.444C36.7526 46.9359 37.3326 47.3201 37.9899 47.591C38.6472 47.8618 39.3376 47.9972 40.0529 47.9972C40.4037 47.9972 40.7572 47.9641 41.1162 47.8922C41.4753 47.8231 41.8619 47.7153 42.2762 47.5688L42.5524 47.4721V44.2688C41.8619 45.0068 41.0831 45.3744 40.2186 45.3744C39.8237 45.3744 39.4536 45.2997 39.1139 45.1533C38.7742 45.0068 38.4759 44.8023 38.2219 44.5452C37.9678 44.2882 37.7717 43.9842 37.6281 43.6332C37.4845 43.2822 37.4127 42.9008 37.4127 42.4862C37.4127 42.0799 37.4845 41.704 37.6281 41.353C37.7717 41.002 37.965 40.7008 38.2136 40.4465C38.4621 40.1922 38.7577 39.9932 39.1029 39.844C39.4481 39.6975 39.8237 39.6229 40.2297 39.6229C41.1494 39.6229 41.9227 40.0043 42.5496 40.7698V37.5389H42.5524ZM46.9712 37.2902H44.2647V47.7098H46.9712V43.191L50.4925 47.7098H54L49.4845 42.2236L53.6133 37.2902H50.2716L46.9712 41.5879V37.2902ZM54 29.5H6V32.5H54V29.5Z" fill="white"/>
<defs>
<linearGradient id="paint0_linear" x1="-1.72158e-06" y1="-0.999999" x2="60" y2="60" gradientUnits="userSpaceOnUse">
<stop stop-color="#4849C2"/>
<stop offset="1" stop-color="#2327A5"/>
</linearGradient>
</defs>
</svg>

<svg width="60" height="60" fill="none" xmlns="http://www.w3.org/2000/svg"><rect width="60" height="60" rx="8" fill="url(#a)"/><path fill-rule="evenodd" clip-rule="evenodd" d="m9.524 25 1.175-7.483L13.753 25h1.41l3.217-7.483L19.555 25h3.524l-2.314-13H17.26l-2.71 6.931L11.818 12H8.313L6 25h3.524zm20.025-4.828 1.59-4.327 1.59 4.327h-3.18zM34.483 25h3.777l-5.187-13h-3.868L24.02 25h3.777l.813-2.259h5.06L34.483 25zm5.331-13v13h3.542V12h-3.542zm6.397 0v13H54v-2.862h-4.247V12H46.21zM13.968 37.539a7.359 7.359 0 0 0-1.265-.41 5.792 5.792 0 0 0-1.22-.129c-.727 0-1.423.135-2.086.406a5.447 5.447 0 0 0-2.947 2.86A5.312 5.312 0 0 0 6 42.473c0 .802.152 1.543.456 2.22a5.683 5.683 0 0 0 1.21 1.755A5.416 5.416 0 0 0 11.47 48a5.4 5.4 0 0 0 1.063-.105 8.472 8.472 0 0 0 1.16-.323l.276-.097v-3.206c-.69.738-1.469 1.105-2.333 1.105a2.769 2.769 0 0 1-2.59-1.74 2.997 2.997 0 0 1-.216-1.148c0-.406.072-.782.215-1.133.144-.351.337-.652.586-.907.248-.254.544-.453.89-.602.344-.147.72-.221 1.126-.221.92 0 1.693.381 2.32 1.147v-3.231zm4.419-.249H15.68v10.42h2.707v-4.298h3.908v4.298H25V37.29h-2.706v4.022h-3.908V37.29zm14.72 0h-5.924v10.42h5.924v-2.294H29.89v-1.797h3.038v-2.294H29.89v-1.74h3.217V37.29zm9.445.249a7.41 7.41 0 0 0-1.262-.41A5.857 5.857 0 0 0 40.067 37c-.727 0-1.423.135-2.085.406-.663.271-1.246.65-1.749 1.133a5.446 5.446 0 0 0-1.201 1.728 5.341 5.341 0 0 0-.447 2.203c0 .801.151 1.542.455 2.219a5.684 5.684 0 0 0 1.21 1.755 5.42 5.42 0 0 0 4.866 1.448c.36-.069.746-.177 1.16-.323l.276-.097V44.27c-.69.738-1.469 1.105-2.333 1.105a2.769 2.769 0 0 1-2.59-1.74 2.997 2.997 0 0 1-.216-1.148c0-.406.072-.782.215-1.133.144-.351.337-.652.586-.907.248-.254.544-.453.889-.602.345-.147.72-.221 1.127-.221.92 0 1.693.381 2.32 1.147v-3.231h.002zm4.42-.249h-2.707v10.42h2.706V43.19l3.522 4.519H54l-4.516-5.486 4.13-4.934h-3.342l-3.3 4.298V37.29zM54 29.5H6v3h48v-3z" fill="#fff"/><defs><linearGradient id="a" x1="0" y1="-1" x2="60" y2="60" gradientUnits="userSpaceOnUse"><stop stop-color="#4849C2"/><stop offset="1" stop-color="#2327A5"/></linearGradient></defs></svg>
